!!!OTL: 156b. Die Muellerin.
!!!ODT: 1845
!!!ARE: Europa, Mitteleuropa, Deutschland, Odenwald
!!!SCT: E0156
!!!TXL: @@DE
!!!YEM: Copyright 1995, estate of Helmut Schaffrath.
**kern	**text
*ICvox	*
*M4/4	*
*met(c)	*
*k[b-]	*
*F:	*
!LO:TX:a:t=Heiter.	!
!LO:TX:a:t=Aus dem Odenwald 1845.	!
{4c	Es
=1	=1
4.f	war
8g	ein-
8aL	-mal
8gJ	.
8aL	ei-
8b-J	-ne
=2	=2
4.cc	Mül-
8dd	-le-
4cc}	-rin,
{4a	ein
=3	=3
4.b-	wun-
8a	-der-
4b-	-ſchö-
4cc	-nes
=4	=4
2a	Weib,
4r}	.
{8fL	ſie
8aJ	.
=5	=5
4cc	thät
4a	ſo
4cc	ger-
4a	-ne
=6	=6
(4.cc	meh-
8ff)	.
4dd}	-len,
{4cc	ſich
=7	=7
4b-/	Geld-
4a	-chen
4g	ʒu
4a	er-
=8	=8
(4.b-	-ſpa-
8dd)	.
4cc}	-ren,
{4b-	das
=9	=9
4.a	war
8g	ihr
4a	einʒ-
4b-	-ge
=10	=10
2cc}	Freud,
{2dd	das
=11	=11
4.cc	war
8a	ihr
4b-	einʒ-
4cc	-ge
=12	=12
2a	Freud.
4r}	.
==	==
!!!AGN: erzaehlendes Volks - Lied, Scherz, Schwank, Ballade ?
!!!ONB: ESAC (Essen Associative Code) Database: ERK1
!!!AMT: simple quadruple
!!!AIN: vox
!!!EED: Helmut Schaffrath
!!!EEV: 1.0
!!!GTL: Schwaenke in Liedform (scherzhafte Erzaehlungen, mitunter satirisch)
!!!URL-scan: https://rosdok.uni-rostock.de/mcrviewer/recordIdentifier/rosdok_ppn745146120/iview2/phys_0562.iview2?x=126.56012155571534&y=2203.7470735698007&scale=0.6828302752574625&rotation=0&layout=singlePageLayout
!!!ENC: Anna Maria Matuszewska
!!!EEV: 2024/04/12
*-	*-
